lib/preview/nrk-logo-preview-nrk-folkemusikk-on-light.svg

<svg width="135" height="14" viewBox="0 0 135 14" fill="none" xmlns="http://www.w3.org/2000/svg">
<path d="M0 12.9966V0.997672H3.93719V12.9966H0ZM9.29381 2.90736L11.5581 12.9966H7.24917L4.54549 0.997672H6.96218C7.51635 0.99048 8.05406 1.18583 8.4745 1.54697C8.89562 1.89296 9.18495 2.37328 9.29381 2.90736ZM12.1495 12.9966V0.997672H16.0867V12.9966H12.1495ZM19.0605 5.56068C18.6362 5.56482 18.2188 5.45381 17.8525 5.23955C17.4912 5.0307 17.1911 4.73054 16.9823 4.36918C16.7678 4.00291 16.6568 3.58534 16.661 3.1609C16.6561 2.73904 16.7672 2.32396 16.9823 1.96101C17.1933 1.60357 17.4931 1.30668 17.8525 1.0991C18.2189 0.885084 18.6362 0.774097 19.0605 0.777966C19.4822 0.773424 19.8971 0.884511 20.2602 1.0991C20.616 1.30849 20.9127 1.60514 21.122 1.96101C21.3368 2.32406 21.4479 2.73908 21.4433 3.1609C21.4473 3.58531 21.3363 4.00281 21.122 4.36918C20.9149 4.72896 20.6179 5.02886 20.2602 5.23955C19.8971 5.45456 19.4819 5.56567 19.0599 5.56068H19.0605ZM22.0516 12.9966V0.997672H25.9892V12.9966H22.0516ZM30.9737 7.55482C30.9848 7.56646 31.0693 7.70447 31.2272 7.96885C31.3851 8.23324 31.5907 8.57127 31.8439 8.98287C32.0974 9.39429 32.3649 9.83084 32.6463 10.2926C32.9278 10.7543 33.1926 11.1909 33.4408 11.6024C33.6881 12.0138 33.9697 12.4785 34.2857 12.9966H29.9598C29.6893 12.5572 29.4441 12.16 29.2245 11.8051C29.0048 11.4503 28.7713 11.0672 28.5238 10.6559C28.2758 10.2451 28.0306 9.84512 27.7882 9.45605C27.5458 9.06698 27.3375 8.7262 27.1633 8.43364C26.9883 8.1409 26.8671 7.94371 26.7997 7.84212C26.6325 7.59003 26.5336 7.29888 26.5127 6.99713C26.5294 6.70752 26.6226 6.42756 26.7828 6.18569C26.8504 6.07303 26.9743 5.87301 27.1545 5.58571C27.3348 5.29842 27.546 4.95764 27.7882 4.56331C28.0304 4.16898 28.2756 3.76619 28.5238 3.35496C28.772 2.94373 29.0056 2.55782 29.2245 2.19729C29.4445 1.83713 29.6897 1.43717 29.9598 0.997397H34.2857L30.9396 6.45608C30.8361 6.61815 30.7777 6.80493 30.7706 6.99713C30.7818 7.1989 30.8522 7.3929 30.9731 7.55482H30.9737Z" fill="#0A2343"/>
<path d="M38.8571 12.9981H40.6316V8.04635H45.1608L45.3468 6.57632H40.6316V2.48621H46.7664V0.998987H38.8571V12.9981Z" fill="#7B0A02"/>
<path d="M53.8053 4.73457C53.1012 4.36039 52.3125 4.17408 51.5153 4.19372C50.7108 4.17539 49.9155 4.36764 49.2082 4.75142C48.5554 5.1169 48.0217 5.66254 47.6706 6.32315C47.289 7.06432 47.0999 7.8896 47.121 8.72298C47.0995 9.54981 47.2763 10.3698 47.6365 11.1143C47.9602 11.7643 48.4766 12.2984 49.1152 12.6438C49.8027 13.0039 50.5701 13.1842 51.346 13.1677C52.1583 13.1838 52.9613 12.9919 53.6785 12.6103C54.3479 12.2448 54.8969 11.6928 55.2587 11.0214C55.6513 10.2714 55.8462 9.43375 55.8249 8.58751C55.8442 7.78157 55.6642 6.98332 55.3007 6.26374C54.9639 5.61771 54.4437 5.08569 53.8053 4.73457ZM53.7036 10.3961C53.5141 10.8354 53.1922 11.2047 52.7828 11.4523C52.3718 11.6879 51.9045 11.8078 51.4308 11.7991C50.9663 11.8107 50.5083 11.6874 50.1124 11.4442C49.7208 11.1838 49.415 10.8135 49.2335 10.3798C49.0037 9.82311 48.8944 9.22411 48.9127 8.62217C48.8928 8.03644 49.0024 7.45352 49.2335 6.91496C49.4231 6.4917 49.7391 6.13746 50.138 5.90093C50.5643 5.66629 51.0455 5.54962 51.532 5.56294C51.9119 5.55342 52.2894 5.62546 52.6392 5.77419C52.9454 5.91233 53.2126 6.12437 53.4166 6.3913C53.6344 6.68106 53.7923 7.0113 53.881 7.36277C53.9868 7.77406 54.0379 8.19753 54.0332 8.62217C54.053 9.23037 53.9406 9.83558 53.7036 10.3961Z" fill="#7B0A02"/>
<path d="M60.5819 11.7557C60.523 11.7623 60.4638 11.7653 60.4045 11.7647C60.2773 11.7684 60.1507 11.7453 60.0329 11.6968C59.9307 11.651 59.843 11.5779 59.7795 11.4856C59.706 11.3761 59.657 11.2521 59.6358 11.1219C59.6052 10.9491 59.591 10.7738 59.5935 10.5983V0.23877L57.8695 0.492313V11.3591C57.8623 11.6439 57.9082 11.9277 58.0049 12.1957C58.0858 12.4136 58.2193 12.6081 58.3936 12.7618C58.5669 12.9107 58.7723 13.0177 58.9936 13.0744C59.2391 13.1383 59.492 13.1695 59.7456 13.1674C59.8808 13.1674 60.0102 13.1618 60.1344 13.1508C60.2586 13.1398 60.3794 13.1226 60.4977 13.0998C60.616 13.077 60.7143 13.0547 60.7932 13.0325L60.9622 11.6971L60.7591 11.7309C60.6921 11.7421 60.6329 11.7504 60.5819 11.7557Z" fill="#7B0A02"/>
<path d="M70.0379 4.37902H67.9253L65.0334 7.55625H64.4101V0.23877L62.6866 0.492313V12.9984H64.4101V8.85787H64.4383L67.8912 12.9984H70.1221L66.0227 8.37905L70.0379 4.37902Z" fill="#7B0A02"/>
<path d="M77.592 5.46908C77.2676 5.04859 76.8395 4.71959 76.3498 4.51426C75.8056 4.29212 75.2221 4.18283 74.6344 4.19311C74.0424 4.18309 73.455 4.29826 72.9106 4.5311C72.4154 4.74789 71.9741 5.07103 71.6178 5.47754C71.2506 5.90453 70.9745 6.40196 70.8063 6.93939C70.6137 7.55448 70.5197 8.19617 70.5277 8.84065C70.5038 9.65496 70.6746 10.4632 71.026 11.1983C71.3472 11.8352 71.866 12.351 72.5047 12.6686C73.2543 13.0216 74.0767 13.1924 74.9048 13.1671C75.3032 13.1704 75.7013 13.145 76.096 13.0911C76.4261 13.0436 76.7513 12.9672 77.068 12.8629C77.382 12.7575 77.6871 12.6275 77.9806 12.4742L78.0989 11.1729C77.8847 11.2517 77.6677 11.3306 77.448 11.4095C77.2283 11.4884 77.0002 11.5588 76.7638 11.6208C76.5252 11.6832 76.2823 11.7283 76.0372 11.7557C75.7903 11.7841 75.542 11.7983 75.2935 11.7982C74.8497 11.8053 74.4069 11.7571 73.975 11.6545C73.6268 11.5711 73.3046 11.4027 73.0373 11.1644C72.7674 10.9072 72.5694 10.5838 72.4628 10.2264C72.3523 9.86452 72.2904 9.48954 72.2786 9.11132H78.386C78.4692 8.41219 78.4379 7.70418 78.2931 7.01517C78.1742 6.45509 77.935 5.92754 77.592 5.46908ZM73.3331 5.87495C73.7296 5.63391 74.1876 5.51344 74.6513 5.52822C75.1155 5.50502 75.574 5.63901 75.9526 5.9085C76.2892 6.17713 76.5293 6.54783 76.6368 6.96476C76.7214 7.27303 76.7629 7.59148 76.7602 7.91113H72.3157C72.347 7.57414 72.419 7.24218 72.53 6.92247C72.6745 6.49408 72.9569 6.12568 73.3331 5.87495Z" fill="#7B0A02"/>
<path d="M92.1765 4.54804C91.7157 4.29777 91.1964 4.17523 90.6724 4.19313C90.2175 4.1918 89.7659 4.269 89.3373 4.4213C88.902 4.57722 88.4921 4.79648 88.1207 5.07197C87.9102 5.22798 87.7099 5.39728 87.5211 5.57892C87.3478 5.1558 87.0423 4.80013 86.6501 4.56496C86.1838 4.31341 85.6587 4.19089 85.1292 4.21005C84.6772 4.21023 84.2285 4.2874 83.8024 4.43822C83.3651 4.5921 82.9524 4.80835 82.577 5.08036C82.4556 5.16796 82.3381 5.26289 82.222 5.36203V4.21088L80.4982 4.46442V12.9989H82.222V6.57102C82.4252 6.43799 82.6369 6.31857 82.8558 6.21357C83.1239 6.08693 83.4042 5.98783 83.6923 5.91781C83.9579 5.85232 84.2303 5.81826 84.5038 5.81638C84.7548 5.80879 85.0048 5.85205 85.2387 5.94346C85.4325 6.02535 85.6036 6.15276 85.7375 6.31494C85.8842 6.50341 85.9854 6.72318 86.0333 6.95715C86.0991 7.25966 86.1302 7.56866 86.1262 7.87821V12.9989H87.8501V7.52303C87.8512 7.19975 87.8294 6.87683 87.7847 6.55665C87.9801 6.42827 88.1824 6.31081 88.3908 6.20484C88.6543 6.07225 88.932 5.97017 89.2187 5.90062C89.4898 5.83431 89.7679 5.80024 90.0471 5.79918C90.2953 5.79306 90.5423 5.83619 90.7738 5.92599C90.9709 6.00627 91.1451 6.13405 91.2808 6.29802C91.4277 6.48618 91.5289 6.70596 91.5763 6.93996C91.6423 7.24234 91.6735 7.55127 91.6695 7.86075V12.9987H93.3933V7.50611C93.4149 6.86688 93.3115 6.22962 93.0891 5.62995C92.9138 5.17775 92.5927 4.79697 92.1765 4.54804Z" fill="#7B0A02"/>
<path d="M101.641 10.8946C101.513 10.9721 101.387 11.0442 101.26 11.1053C101.059 11.2036 100.853 11.2911 100.643 11.3675C100.442 11.4401 100.236 11.4966 100.026 11.5365C99.8119 11.5767 99.5941 11.5965 99.3759 11.5957C99.0184 11.6094 98.6634 11.5309 98.345 11.3678C98.0715 11.2123 97.8597 10.9676 97.745 10.6746C97.6056 10.311 97.5395 9.92339 97.5504 9.53412V4.21061L95.8266 4.46408V9.83807C95.8058 10.4794 95.918 11.1181 96.1562 11.714C96.3522 12.184 96.7044 12.5721 97.1533 12.8125C97.6539 13.0621 98.2084 13.1841 98.7675 13.1677C99.1207 13.1701 99.4727 13.1275 99.8151 13.041C100.142 12.9564 100.457 12.8315 100.753 12.6691C101.058 12.5017 101.346 12.3064 101.615 12.0858C101.664 12.0455 101.714 11.9982 101.763 11.9557L102.012 12.9978H103.347L103.364 4.20978L101.641 4.46325V10.8946Z" fill="#7B0A02"/>
<path d="M111.341 9.11136C111.168 8.9277 110.968 8.77098 110.749 8.64636C110.522 8.51646 110.285 8.40623 110.039 8.31683C109.859 8.2605 109.682 8.20131 109.507 8.13934C109.332 8.07737 109.158 8.02101 108.983 7.97031C108.808 7.91961 108.639 7.86615 108.476 7.80981C108.323 7.75772 108.173 7.69558 108.028 7.62387C107.889 7.55007 107.756 7.46533 107.631 7.37039C107.515 7.28313 107.418 7.17407 107.344 7.04932C107.269 6.9212 107.231 6.77507 107.234 6.62682C107.229 6.46388 107.27 6.30288 107.352 6.16202C107.44 6.02367 107.563 5.91023 107.707 5.83249C107.884 5.7355 108.075 5.66698 108.273 5.62942C108.521 5.5821 108.773 5.55954 109.025 5.5621C109.149 5.5621 109.284 5.56796 109.431 5.57895C109.577 5.58993 109.738 5.61026 109.913 5.63843C110.088 5.6666 110.262 5.7032 110.436 5.7477C110.611 5.7922 110.788 5.84375 110.969 5.90009C111.136 5.95151 111.3 6.01367 111.459 6.08624L111.577 4.71709C111.363 4.62714 111.152 4.54817 110.944 4.48019C110.735 4.41289 110.524 4.35645 110.31 4.31116C110.101 4.26698 109.889 4.23599 109.676 4.21826C109.467 4.20136 109.262 4.19288 109.059 4.19288C108.592 4.18809 108.127 4.24205 107.673 4.35345C107.286 4.44785 106.917 4.60787 106.583 4.82664C106.281 5.02674 106.034 5.29996 105.865 5.62096C105.688 5.97473 105.601 6.36646 105.612 6.76174C105.606 7.04642 105.652 7.32974 105.747 7.59828C105.827 7.82368 105.947 8.03266 106.102 8.21512C106.252 8.38762 106.425 8.53838 106.617 8.663C106.817 8.79407 107.029 8.90447 107.251 8.99253C107.374 9.03779 107.504 9.08276 107.64 9.12745C107.775 9.17214 107.908 9.21456 108.037 9.25474C108.166 9.29417 108.293 9.3335 108.417 9.37274C108.541 9.41246 108.662 9.45166 108.78 9.49109C108.899 9.53053 109.014 9.56711 109.127 9.60091C109.278 9.65448 109.425 9.71943 109.566 9.79525C109.69 9.86084 109.806 9.94023 109.913 10.0319C110.006 10.1136 110.081 10.2145 110.132 10.3276C110.184 10.4446 110.21 10.5712 110.208 10.6991C110.214 10.8242 110.192 10.9491 110.144 11.0646C110.096 11.1802 110.023 11.2835 109.93 11.3673C109.72 11.5419 109.47 11.661 109.203 11.7134C108.889 11.7826 108.569 11.8167 108.248 11.8149C108.047 11.8136 107.847 11.7995 107.648 11.7726C107.428 11.7444 107.197 11.705 106.955 11.6543C106.713 11.6036 106.465 11.5416 106.211 11.4684C105.958 11.3952 105.702 11.3136 105.443 11.2236L105.51 12.6601C105.803 12.7615 106.071 12.8432 106.313 12.9052C106.555 12.9671 106.786 13.0207 107.006 13.0657C107.218 13.1096 107.432 13.1379 107.648 13.1502C107.856 13.1613 108.068 13.1669 108.282 13.1669C108.753 13.1693 109.223 13.121 109.685 13.0229C110.09 12.9406 110.479 12.7892 110.834 12.5754C111.153 12.3801 111.418 12.1068 111.603 11.781C111.796 11.4236 111.892 11.0215 111.881 10.6152C111.888 10.3187 111.84 10.0234 111.738 9.74484C111.647 9.51029 111.512 9.29526 111.341 9.11136Z" fill="#7B0A02"/>
<path d="M115.404 0.669457C115.229 0.56224 115.027 0.506577 114.821 0.508886C114.613 0.507313 114.409 0.562862 114.23 0.669457C114.054 0.772805 113.906 0.91791 113.799 1.09196C113.692 1.26735 113.636 1.46945 113.639 1.67503C113.637 1.8832 113.692 2.0878 113.799 2.2665C113.902 2.44334 114.051 2.58925 114.23 2.689C114.41 2.79033 114.614 2.84277 114.821 2.84111C115.026 2.84348 115.227 2.79094 115.404 2.689C115.578 2.58851 115.721 2.44243 115.818 2.2665C115.92 2.08595 115.972 1.88209 115.97 1.67503C115.973 1.47059 115.92 1.26924 115.818 1.09196C115.718 0.918692 115.575 0.773426 115.404 0.669457Z" fill="#7B0A02"/>
<path d="M113.926 12.9981H115.65V4.21006L113.926 4.46353V12.9981Z" fill="#7B0A02"/>
<path d="M125.638 4.37902H123.526L120.634 7.55625H120.01V0.23877L118.287 0.492313V12.9984H120.01V8.85787H120.039L123.492 12.9984H125.722L121.623 8.37905L125.638 4.37902Z" fill="#7B0A02"/>
<path d="M132.364 12.9981H134.595L130.496 8.37877L134.511 4.37902H132.398L129.506 7.55625H128.883V0.23877L127.159 0.492313V12.9984H128.883V8.85787H128.911L132.364 12.9981Z" fill="#7B0A02"/>
</svg>

<svg xmlns="http://www.w3.org/2000/svg" viewBox="0 0 135 14"><path fill="#0A2343" d="M0 12.997v-12h3.937v12H0Zm9.294-10.09 2.264 10.09H7.25l-2.704-12h2.417a2.276 2.276 0 0 1 1.513.55c.42.346.71.826.819 1.36Zm2.855 10.09v-12h3.938v12h-3.938Zm6.912-7.436a2.382 2.382 0 0 1-2.4-2.4 2.301 2.301 0 0 1 .321-1.2 2.41 2.41 0 0 1 3.278-.862c.356.21.653.506.862.862.215.363.326.778.321 1.2a2.35 2.35 0 0 1-.321 1.208 2.4 2.4 0 0 1-.862.87 2.302 2.302 0 0 1-1.2.322Zm2.99 7.436v-12h3.938v12h-3.937Zm8.923-5.442c.01.011.095.15.253.414s.364.602.617 1.014a313.388 313.388 0 0 1 1.597 2.62c.247.41.529.876.845 1.394H29.96c-.27-.44-.516-.837-.736-1.192-.22-.355-.453-.738-.7-1.15-.248-.41-.493-.81-.736-1.199-.242-.389-.45-.73-.625-1.022-.175-.293-.296-.49-.363-.592a1.747 1.747 0 0 1-.287-.845c.016-.29.11-.57.27-.811.067-.113.191-.313.371-.6a182.106 182.106 0 0 0 1.37-2.23l.7-1.159.736-1.2h4.326l-3.346 5.46a1.08 1.08 0 0 0-.17.54c.012.202.082.396.203.558Z"/><path fill="#7B0A02" d="M38.857 12.998h1.775V8.046h4.529l.186-1.47h-4.715v-4.09h6.134V1h-7.909v12ZM53.805 4.735a4.636 4.636 0 0 0-2.29-.541 4.617 4.617 0 0 0-2.307.557 3.897 3.897 0 0 0-1.537 1.572 4.968 4.968 0 0 0-.55 2.4 5.182 5.182 0 0 0 .515 2.391c.324.65.84 1.184 1.48 1.53.687.36 1.454.54 2.23.524a4.765 4.765 0 0 0 2.333-.558 3.94 3.94 0 0 0 1.58-1.589c.392-.75.587-1.587.566-2.433a4.894 4.894 0 0 0-.524-2.324 3.694 3.694 0 0 0-1.496-1.53Zm-.101 5.661c-.19.44-.512.809-.921 1.056a2.622 2.622 0 0 1-1.352.347 2.404 2.404 0 0 1-1.319-.355 2.383 2.383 0 0 1-.879-1.064 4.267 4.267 0 0 1-.32-1.758c-.02-.586.09-1.168.32-1.707.19-.423.506-.778.905-1.014a2.736 2.736 0 0 1 1.394-.338c.38-.01.757.062 1.107.211.306.138.574.35.778.617.217.29.375.62.464.972.106.411.157.835.152 1.26a4.204 4.204 0 0 1-.33 1.773ZM60.582 11.756a1.46 1.46 0 0 1-.178.009.907.907 0 0 1-.371-.068.61.61 0 0 1-.254-.211.917.917 0 0 1-.143-.364 2.776 2.776 0 0 1-.043-.524V.238L57.87.493V11.36c-.007.285.04.569.136.837a1.408 1.408 0 0 0 .989.878c.245.064.498.095.752.093.135 0 .264-.005.388-.016a3.717 3.717 0 0 0 .659-.118l.17-1.336-.204.034a2.93 2.93 0 0 1-.177.025ZM70.038 4.379h-2.113l-2.892 3.177h-.623V.24l-1.723.253v12.506h1.723v-4.14h.028l3.453 4.14h2.231l-4.1-4.619 4.016-4ZM77.592 5.47a3.067 3.067 0 0 0-1.242-.956 4.338 4.338 0 0 0-1.716-.32 4.203 4.203 0 0 0-1.723.337c-.496.217-.937.54-1.293.947a4.137 4.137 0 0 0-.812 1.461 6.109 6.109 0 0 0-.278 1.902 5.118 5.118 0 0 0 .498 2.357c.321.637.84 1.153 1.479 1.47.75.354 1.572.524 2.4.5.398.002.796-.023 1.191-.077.33-.047.655-.124.972-.228.314-.105.62-.236.913-.389l.118-1.301a89.57 89.57 0 0 1-.651.236c-.22.08-.448.15-.684.212a5.12 5.12 0 0 1-.727.135 6.485 6.485 0 0 1-.744.042 5.335 5.335 0 0 1-1.318-.143 2.168 2.168 0 0 1-.938-.49 2.14 2.14 0 0 1-.574-.939 4.275 4.275 0 0 1-.184-1.115h6.107c.083-.699.052-1.407-.093-2.096a3.95 3.95 0 0 0-.701-1.546Zm-4.259.405a2.391 2.391 0 0 1 1.318-.347c.465-.023.923.111 1.302.38.336.27.576.64.684 1.057.084.308.126.626.123.946h-4.444c.031-.337.103-.669.214-.989.144-.428.427-.796.803-1.047ZM92.177 4.548c-.461-.25-.98-.373-1.505-.355a3.953 3.953 0 0 0-1.335.228 4.706 4.706 0 0 0-1.216.651c-.21.156-.411.325-.6.507a2.118 2.118 0 0 0-.87-1.014 2.977 2.977 0 0 0-1.522-.355c-.452 0-.9.077-1.327.228a4.809 4.809 0 0 0-1.58.924V4.211l-1.724.253V13h1.724V6.57a5.5 5.5 0 0 1 .634-.357c.268-.127.548-.226.836-.296.266-.066.538-.1.812-.102.25-.007.5.036.735.127.194.082.365.21.498.372.147.188.248.408.296.642.066.303.097.612.093.921v5.12h1.724V7.524a6.821 6.821 0 0 0-.065-.966c.195-.129.397-.246.606-.352.263-.133.541-.235.828-.304.27-.067.549-.1.828-.102.248-.006.495.037.727.127.197.08.371.208.507.372.147.188.248.408.295.642.066.302.098.611.094.92V13h1.723V7.506a4.918 4.918 0 0 0-.304-1.876 2.178 2.178 0 0 0-.912-1.082ZM101.641 10.895c-.128.077-.254.15-.381.21a6.332 6.332 0 0 1-.617.262c-.201.073-.407.13-.617.17-.214.04-.432.06-.65.059a2.086 2.086 0 0 1-1.031-.228 1.373 1.373 0 0 1-.6-.693 2.955 2.955 0 0 1-.195-1.14V4.21l-1.723.253v5.374c-.021.641.091 1.28.33 1.876.195.47.547.858.996 1.098.5.25 1.055.372 1.614.356.354.002.706-.04 1.048-.127a4.07 4.07 0 0 0 .938-.372c.305-.167.593-.363.862-.583.049-.04.099-.088.148-.13l.249 1.042h1.335l.017-8.788-1.723.253v6.432ZM111.341 9.111a2.538 2.538 0 0 0-.592-.465 4.574 4.574 0 0 0-.71-.33c-.18-.056-.357-.115-.532-.177a9.423 9.423 0 0 0-.524-.169c-.175-.05-.344-.104-.507-.16a3.705 3.705 0 0 1-.448-.186 2.922 2.922 0 0 1-.397-.254 1.109 1.109 0 0 1-.287-.32.804.804 0 0 1-.11-.423.87.87 0 0 1 .118-.465.963.963 0 0 1 .355-.33c.177-.096.368-.165.566-.203.248-.047.5-.07.752-.067a5.48 5.48 0 0 1 .888.076c.175.029.349.065.523.11.175.044.352.096.533.152.167.052.331.114.49.186l.118-1.369a8.244 8.244 0 0 0-.633-.237 6.367 6.367 0 0 0-.634-.169 5.121 5.121 0 0 0-.634-.093 7.642 7.642 0 0 0-.617-.025 5.572 5.572 0 0 0-1.386.16 3.507 3.507 0 0 0-1.09.474 2.16 2.16 0 0 0-.718.794 2.4 2.4 0 0 0-.253 1.14c-.006.285.04.569.135.837.08.226.2.435.355.617.15.173.323.323.515.448.2.131.412.241.634.33a23.522 23.522 0 0 0 .786.262 40.551 40.551 0 0 1 .743.236c.119.04.234.076.347.11.151.053.298.118.439.194.124.066.24.145.347.237a.87.87 0 0 1 .295.667.847.847 0 0 1-.278.668c-.21.175-.46.294-.727.346-.314.07-.634.104-.955.102a4.701 4.701 0 0 1-.6-.042 8.913 8.913 0 0 1-.693-.119c-.242-.05-.49-.112-.744-.186a15.27 15.27 0 0 1-.768-.244l.067 1.436c.293.101.561.183.803.245s.473.116.693.16c.212.045.426.073.642.085.208.011.42.017.634.017a6.59 6.59 0 0 0 1.403-.144 3.629 3.629 0 0 0 1.149-.448c.319-.195.584-.468.769-.794.193-.357.289-.76.278-1.166a2.368 2.368 0 0 0-.143-.87 1.985 1.985 0 0 0-.397-.634ZM115.404.67a1.092 1.092 0 0 0-.583-.161 1.137 1.137 0 0 0-.591.16 1.248 1.248 0 0 0-.431.423 1.09 1.09 0 0 0-.16.583 1.13 1.13 0 0 0 .16.592c.103.176.252.322.431.422.18.101.384.154.591.152.205.002.406-.05.583-.152.174-.1.317-.247.414-.422.102-.181.154-.385.152-.592a1.136 1.136 0 0 0-.152-.583 1.194 1.194 0 0 0-.414-.423ZM113.926 12.998h1.724V4.21l-1.724.254v8.534ZM125.638 4.379h-2.112l-2.892 3.177h-.624V.24l-1.723.253v12.506h1.723v-4.14h.029l3.453 4.14h2.23l-4.099-4.619 4.015-4ZM132.364 12.998h2.231l-4.099-4.62 4.015-3.999h-2.113l-2.892 3.177h-.623V.24l-1.724.253v12.506h1.724v-4.14h.028l3.453 4.14Z"/></svg>
